X:1
T:Title
%%score { ( 1 3 ) | 2 }
L:1/8
Q:1/4=100
M:4/4
K:F
V:1 treble nm="Grand Piano"
V:3 treble 
V:2 bass 
V:1
 A2 c2 A3 [EG] | [DF]2 [DF]2 [DG][DF][CE]D | C2 F2 A2 cc | A2 [CF]2 [CEG]4 | A2 c2 A3 [EG] | %5
w: W.~H.~Doane * * *|||||
 [DF]2 [DF]2 [DG][DF][CE][B,D] | z4 z2 G2 | F6 z2 | [DF]2 [DB]2 [Fd]3 [Fd] | %9
w: ||||
 [Fc]2 [GB]2 [FA][EG] [DF]2 | [EG]2 [FA]2 G3 F | A2 [Ec]2 c4 | A2 c2 d3 d | c2 B2 A[B,EG] [A,DF]2 | %14
w: |||||
 z2 .[^FA]2 z4 | z2 E2 z4 |] %16
w: ||
V:2
 [F,CF]2 [F,A,F]2 [F,CF]3 [C,B,] | [D,A,]2 [D,A,]2 [B,,B,][B,,B,][B,,F,][B,,F,B,] | %2
 [F,A,]2 [F,A,C]2 [F,CF]2 [F,A,F][F,A,F] | [F,CF]2 A,,2 C,4 | [F,CF]2 [F,A,F]2 [F,CF]3 [C,B,] | %5
 [D,A,]2 [D,A,]2 [B,,B,][B,,B,][B,,F,][B,,F,] | [C,F,]2 [A,,F,][B,,F,] [C,F,C]2 .[C,E,C]2 | %7
 [F,A,C]6 z2 | [B,,B,]2 [B,,F,]2 [B,,B,]3 [B,,B,] | [F,A,]2 [E,C]2 [F,C][C,B,] [D,A,]2 | %10
 [C,C]2 [C,C]2 [C,B,C]3 [F,A,C] | [F,C]2 [C,G,]2[K:treble] [F,A,F]4 | %12
 [F,CF]2 [A,CF]2 [B,F]3 [B,F] | [A,CG]2[K:bass] [G,CE]2 [F,DF]C, D,2 | B,,2 A,,G,, C,3 [C,B,C] | %15
 [C,A,C]2 .[C,G,C]2 [F,A,C]4 |] %16
V:3
 x8 | x8 | x8 | x8 | x8 | x8 | [A,C]2 [CF][DG] A2 z B, | x8 | x8 | x8 | x8 | x8 | x8 | x8 | %14
 [B,DG]2 D-[DGB] [C=FA]3 G | F2 z B, F4 |] %16

